PortableApps/LibreOfficePortable/App/libreoffice/help/media/icon-themes/cmd/sc_acceptalltrackedchanges.svg

<svg viewBox="0 0 16 16" xmlns="http://www.w3.org/2000/svg"><path d="m3 1v14h3.5859375l-1.5371094-1.503906c-.7642234-.747251-.76421-1.916845 0-2.664063.2551493-.249436.5534175-.407389.8632813-.490234l-.8632813-.8457032c-.7642234-.7472504-.76421-1.9168444 0-2.6640626.7637106-.746609 1.896442-.7468114 2.6601563 0l1.2285156 1.2011719 3.960938-4.4316406-2.59375-2.6015625zm10 12.082031-1.716797 1.917969h1.716797z" fill="#fff"/><path d="m3 0c-.554 0-1 .446-1 1v14c0 .554.446 1 1 1h4.609375l-1.0234375-1h-3.5859375v-14h6v3.5c0 .277.223.5.5.5h2.148438l.894531-1h-2.542969v-3l2.757812 2.7578125.644532-.71875-3.039063-3.0390625h-.863281zm1.4765625 4c-.2637208 0-.4765625.2128417-.4765625.4765625v.046875c0 .2637208.2128417.4765625.4765625.4765625h3.046875c.2637208 0 .4765625-.2128417.4765625-.4765625v-.046875c0-.2637208-.2128417-.4765625-.4765625-.4765625zm.0234375 6c-.277 0-.5.223-.5.5s.223.5.5.5h.4082031c.046143-.05638.086935-.115472.140625-.167969.2551493-.249436.5534175-.407389.8632813-.490234l-.3476563-.341797zm9.5 1.964844-1 1.117187v1.917969h-1.716797l-.861328.962891-.03125.037109h2.609375c.554 0 1-.446 1-1z" fill="#808080"/><path d="m15.255859 3.0117188c-.08447-.0155171-.171544-.0161139-.261718.0019531-.192169.040605-.369549.1462267-.494141.2949219l-5.5136719 6.1699218-1.9765625-1.9316406c-.3304046-.323092-.9312527-.323066-1.2617187 0-.3304218.323075-.3304481.911266 0 1.234375l2.6328125 2.574219.6875.644531.6035156-.697266 6.144531-6.8671871c.435902-.4639888.030741-1.3152069-.560547-1.4238281zm0 4c-.08447-.0155171-.171544-.0161139-.261718.0019531-.192169.040605-.369549.1462266-.494141.2949219l-5.5136719 6.1699222-1.9765625-1.931641c-.3304046-.323092-.9312527-.323066-1.2617187 0-.3304218.323075-.3304481.911266 0 1.234375l2.6328125 2.574219.6875.644531.6035156-.697266 6.144531-6.8671871c.435902-.4639888.030741-1.3152069-.560547-1.4238281z" fill="#4d82b8"/><path d="m4.5 7c-.277 0-.5.223-.5.5 0 .2742034.2190806.4936065.4921875.4980469.0329709-.3551666.1718988-.6998035.4160156-.9980469zm3.3808594 0 1.0234375 1h.0625l.8945312-1zm-3.40625 6c-.2629151 0-.4746094.211694-.4746094.474609v.050782c0 .262915.2116943.474609.4746094.474609h1.0507812c.0117088 0 .0217116-.005034.0332032-.005859l-.5097657-.498047c-.0786196-.076874-.1450401-.160211-.2050781-.246094-.0590597-.080267-.1077474-.164161-.1523438-.25z" fill="#d65532"/></svg>

<svg viewBox="0 0 16 16" xmlns="http://www.w3.org/2000/svg">
  <path
     d="M 3 1 L 3 15 L 6.5859375 15 L 5.0488281 13.496094 C 4.2846047 12.748843 4.2846181 11.579249 5.0488281 10.832031 C 5.3039774 10.582595 5.6022456 10.424642 5.9121094 10.341797 L 5.0488281 9.4960938 C 4.2846047 8.7488434 4.2846181 7.5792494 5.0488281 6.8320312 C 5.8125387 6.0854222 6.9452701 6.0852198 7.7089844 6.8320312 L 8.9375 8.0332031 L 12.898438 3.6015625 L 10.304688 1 L 3 1 z M 13 13.082031 L 11.283203 15 L 13 15 L 13 13.082031 z "
     style="fill:#ffffff" />
  <path
     style="fill:#808080"
     d="M 3 0 C 2.446 0 2 0.446 2 1 L 2 15 C 2 15.554 2.446 16 3 16 L 7.609375 16 L 6.5859375 15 L 3 15 L 3 1 L 9 1 L 9 4.5 C 9 4.777 9.223 5 9.5 5 L 11.648438 5 L 12.542969 4 L 10 4 L 10 1 L 12.757812 3.7578125 L 13.402344 3.0390625 L 10.363281 0 L 9.5 0 L 3 0 z M 4.4765625 4 C 4.2128417 4 4 4.2128417 4 4.4765625 L 4 4.5234375 C 4 4.7871583 4.2128417 5 4.4765625 5 L 7.5234375 5 C 7.7871583 5 8 4.7871583 8 4.5234375 L 8 4.4765625 C 8 4.2128417 7.7871583 4 7.5234375 4 L 4.4765625 4 z M 4.5 10 C 4.223 10 4 10.223 4 10.5 C 4 10.777 4.223 11 4.5 11 L 4.9082031 11 C 4.9543461 10.94362 4.9951381 10.884528 5.0488281 10.832031 C 5.3039774 10.582595 5.6022456 10.424642 5.9121094 10.341797 L 5.5644531 10 L 4.5 10 z M 14 11.964844 L 13 13.082031 L 13 15 L 11.283203 15 L 10.421875 15.962891 L 10.390625 16 L 13 16 C 13.554 16 14 15.554 14 15 L 14 11.964844 z "
     />
  <path
     d="M 15.255859 3.0117188 C 15.171389 2.9962017 15.084315 2.9956049 14.994141 3.0136719 C 14.801972 3.0542769 14.624592 3.1598986 14.5 3.3085938 L 8.9863281 9.4785156 L 7.0097656 7.546875 C 6.679361 7.223783 6.0785129 7.223809 5.7480469 7.546875 C 5.4176251 7.86995 5.4175988 8.458141 5.7480469 8.78125 L 8.3808594 11.355469 L 9.0683594 12 L 9.671875 11.302734 L 15.816406 4.4355469 C 16.252308 3.9715581 15.847147 3.12034 15.255859 3.0117188 z M 15.255859 7.0117188 C 15.171389 6.9962017 15.084315 6.9956049 14.994141 7.0136719 C 14.801972 7.0542769 14.624592 7.1598985 14.5 7.3085938 L 8.9863281 13.478516 L 7.0097656 11.546875 C 6.679361 11.223783 6.0785129 11.223809 5.7480469 11.546875 C 5.4176251 11.86995 5.4175988 12.458141 5.7480469 12.78125 L 8.3808594 15.355469 L 9.0683594 16 L 9.671875 15.302734 L 15.816406 8.4355469 C 16.252308 7.9715581 15.847147 7.12034 15.255859 7.0117188 z "
     style="fill:#4d82b8" />
  <path
     d="M 4.5 7 C 4.223 7 4 7.223 4 7.5 C 4 7.7742034 4.2190806 7.9936065 4.4921875 7.9980469 C 4.5251584 7.6428803 4.6640863 7.2982434 4.9082031 7 L 4.5 7 z M 7.8808594 7 L 8.9042969 8 L 8.9667969 8 L 9.8613281 7 L 7.8808594 7 z M 4.4746094 13 C 4.2116943 13 4 13.211694 4 13.474609 L 4 13.525391 C 4 13.788306 4.2116943 14 4.4746094 14 L 5.5253906 14 C 5.5370994 14 5.5471022 13.994966 5.5585938 13.994141 L 5.0488281 13.496094 C 4.9702085 13.41922 4.903788 13.335883 4.84375 13.25 C 4.7846903 13.169733 4.7360026 13.085839 4.6914062 13 L 4.4746094 13 z "
     id="path10"
     style="fill:#d65532" />
</svg>
